X:1
T:O for a lay!
T:O for a lay!
T:Easter Carol
T:arr. Charles Wood (1866-1926)
T:Mit Freudeun zart (Bohemian Brethren, 1566)
T:Alle-Alle-Alleluya.
T:Alle-Alle-Alleluya.
Z:Alle-Alle-Alleluya.
%%score { ( 1 2 ) | ( 3 4 ) }
L:1/8
M:none
K:F
V:1 treble nm="Part_1"
V:2 treble 
V:3 bass 
V:4 bass 
V:1
 F4 A2 B2 c4 f4 e4 d4 c4 | (d3 c) B2 A2 G4 A2 B2 G4 F8 | F4 A2 B2 c4 f4 e4 d4 c4 | %3
w: 1.~~~O for a lay! For on this day,|This * day, the first of the se- ven|Christ is re- stored to life, the Lord,|
w: 2.~~~Fair~~ was the morn when Christ was born,|But * fair- er yet is the mor- row,|When from the dead up- rose our Head,|
w: 3.~~~So, man, re- joice, up- lift thy voice,|Al- * le\- Al- le\- Al- le- lu- ya.|Sooth- ly, 'tis time to clang the chime,|
 (d3 c) B2 A2 G4 A2 B2 G4 F8 | f4 e2 d2 c2 f2 e4 d4 c4 | z2 c2 F2 G2 A2 F2 A2 B2 c4 | %6
w: Mon- * arch of earth and of hea- ven.|De- feat- ed hell, and death as well,|On East- er E'en our God is seen|
w: En- * ding our night- time of sor- row.|And from the light of Eas- ter bright|We, ash and dust, sure hope and trust|
w: Al- * le\- Al- le\- Al- le- lu- ya.|Sirs, pray you sing to Christ our King,|Who, late- ly slain, is ris'n a- gain;|
 c4 d2 B2 G4 A2 B2 G4 F16 |] %7
w: Stand- ing a- mid the E- le- ven.|
w: of our a- gen- ri- sing bor- row.|
w: Al- le\- Al- le\- Al- le- lu- ya.|
V:2
 F4 F2 F2 F4 F4 G4 G4 E4 | (F3 E) D2 C2 C4 C2 D2 C4 C8 | F4 F2 F2 F4 F4 G4 G4 E4 | %3
 (F3 E) D2 C2 C4 C2 D2 C4 C8 | A4 A2 F2 F2 A2 G4 G4 E4 | x2 E2 D2 D2 F2 D2 F2 G2 G4 | %6
 F4 F2 F2 _E4 E2 F4 =E2 x16 |] %7
V:3
 A,4 D2 D2 C4 A,2 D4 (C4 =B,2) C4 | F,4 F,2 F,2 E,4 F,2 F,4 E,2 F,8 | %2
 A,4 D2 D2 C4 A,2 D4 (C4 =B,2) C4 | F,4 F,2 F,2 E,4 F,2 F,4 E,2 F,8 | C4 C2 B,2 A,2 D4 C4 =B,2 C4 | %5
 z2 A,2 A,2 B,2 C2 D2 C2 D2 E4 | A,4 A,2 B,2 B,4 C2 D2 C4 A,16 |] %7
V:4
 F,4 D,2 D,2 A,,4 D,4 E,4 G,4 C,4 | B,,4 B,,2 F,2 C,4 F,2 B,,2 C,4 x8 | %2
 F,4 D,2 D,2 A,,4 D,4 E,4 G,4 C,4 | B,,4 B,,2 F,2 C,4 F,2 B,,2 C,4 x8 | %4
 F,4 A,2 B,2 F,2 D,2 E,4 G,4 C,4 | z2 A,2 D,2 G,2 F,2 B,2 A,2 G,2 C,4 | %6
 F,4 D,2 D,2 (_E,3 D,) C,2 B,,2 C,4 F,16 |] %7

